X:1
T:Title
%%score ( 1 2 ) ( 3 4 )
L:1/8
Q:1/4=100
M:4/4
K:Bb
V:1 treble nm="Grand Piano"
V:2 treble 
V:3 bass nm="Grand Piano"
V:4 bass 
V:1
 [DF]2 [B,D]2 [DB]4 | cBAG [DF]4 | [EF]2 [Ec]2 [Dd]2 [DB]2 | [DB]2 [Ec][DB] [EA]4 | %4
w: Wilhelm~Brockhaus * *||||
 [Dd]2 [DB]2 [DF]2 [DF]2 | [EG][FA][GB][EG] [DF]2 [DF]2 | [EF]2 GA [DB]2 AB | %7
w: |||
 [Ec]2 [EF]2 dc [DB]2 | [GB]2 [GB][EG] [DF]2 [DF]2 | [EF]2 GA [DB]4 | cBAG [DF]2 [DF]2 | %11
w: ||||
 [Fe]4 A2- [EA]2 | [DB]4 z4 |] %13
w: ||
V:2
 x8 | E2 E2 z4 | x8 | x8 | x8 | x8 | z2 E2 z2 D2 | z4 D2 z2 | x8 | z2 E2 z4 | E2 E2 z4 | z4 F2 z2 | %12
 x8 |] %13
V:3
 [B,,B,]2 [B,,F,]2 [B,,F,]4 | [B,,G,]2 G,A, [B,,B,]4 | [F,A,]2 [F,A,]2 [B,,B,]2 [B,,F,]2 | %3
 F,2 A,B, [F,C]4 | [B,,F,]2 [B,,F,]2 [B,,B,]2 [B,,B,]2 | [E,B,]2 [E,B,]2 [B,,B,]2 [B,,B,]2 | %6
 [A,C]2 [F,C]2 [B,,B,]2 [B,,F,]2 | [F,A,]2 [F,A,]2 [B,,B,]2 [B,,F,]2 | E,2 E,2 [F,B,]2 [F,B,]2 | %9
 [F,A,]2 [F,C]2 [B,,B,]4 | [E,G,]2 A,B, [F,B,]2 [F,B,]2 | [F,A,]4 [F,C]4 | [B,,B,]4 z4 |] %13
V:4
 x8 | z2 B,,2 z4 | x8 | z2 F,2 z4 | x8 | x8 | x8 | x8 | x8 | x8 | z2 E,2 z4 | x8 | x8 |] %13

